icons/svg/radio-handheld.svg

<svg xmlns="http://www.w3.org/2000/svg" version="1.1" baseProfile="full" width="24" height="24" viewBox="0 0 24.00 24.00" xml:space="preserve"><path fill="#000" fill-opacity="1" stroke-width="1.333" stroke-linejoin="miter" d="M9 2c-.554 0-1 .446-1 1v17c0 1.108.892 2 2 2h5c1.108 0 2-.892 2-2V9c0-1.108-.892-2-2-2h-5V3c0-.554-.446-1-1-1zm1 7h5v4h-5V9z"/></svg>

﻿<?xml version="1.0" encoding="utf-8"?>
<!DOCTYPE svg PUBLIC "-//W3C//DTD SVG 1.1//EN" "http://www.w3.org/Graphics/SVG/1.1/DTD/svg11.dtd">
<svg xmlns="http://www.w3.org/2000/svg" xmlns:xlink="http://www.w3.org/1999/xlink" version="1.1" baseProfile="full" width="24" height="24" viewBox="0 0 24.00 24.00" enable-background="new 0 0 24.00 24.00" xml:space="preserve">
	<path fill="#000000" fill-opacity="1" stroke-width="1.33333" stroke-linejoin="miter" d="M 9,2C 8.446,2 8,2.446 8,3C 8,8.6667 8,14.3333 8,20C 8,21.108 8.89199,22 10,22L 15,22C 16.108,22 17,21.108 17,20L 17,9C 17,7.892 16.108,7 15,7L 10,7L 10,3C 10,2.446 9.554,2 9,2 Z M 10,9L 15,9L 15,13L 10,13L 10,9 Z "/>
</svg>
